public/icons/forms/identification.svg

<svg width="11" height="13" viewBox="0 0 11 13" fill="none" xmlns="http://www.w3.org/2000/svg">
<path d="M10.25 0H0.75C0.551088 0 0.360322 0.068482 0.21967 0.190381C0.0790175 0.312279 0 0.477609 0 0.65V12.35C0 12.5224 0.0790175 12.6877 0.21967 12.8096C0.360322 12.9315 0.551088 13 0.75 13H10.25C10.4489 13 10.6397 12.9315 10.7803 12.8096C10.921 12.6877 11 12.5224 11 12.35V0.65C11 0.477609 10.921 0.312279 10.7803 0.190381C10.6397 0.068482 10.4489 0 10.25 0ZM8.34062 8.03752C8.35473 8.27269 8.28624 8.50604 8.1442 8.70678C8.00215 8.90753 7.79322 9.06624 7.54498 9.16197C7.29673 9.25771 7.02083 9.28597 6.75367 9.24303C6.48651 9.20009 6.24064 9.08797 6.04851 8.92146C5.85638 8.75494 5.72701 8.54186 5.67746 8.31032C5.62792 8.07878 5.66053 7.83967 5.77099 7.62452C5.88146 7.40937 6.06458 7.2283 6.29621 7.1052C6.52784 6.98209 6.79709 6.92273 7.06844 6.93496C7.40025 6.94991 7.71391 7.07087 7.94886 7.27449C8.18381 7.47811 8.32338 7.74995 8.34062 8.03752ZM3.5 1.3H7.5V2.16667H3.5V1.3ZM9.5 11.7H4.5V11.0337C4.5 10.1476 6.16469 9.70098 7 9.70098C7.83531 9.70098 9.5 10.1476 9.5 11.0337V11.7Z" fill="black"/>
</svg>

<svg xmlns="http://www.w3.org/2000/svg" fill="none" viewBox="0 0 11 13"><path fill="#000" d="M10.25 0H.75C.55 0 .36.07.22.19A.6.6 0 0 0 0 .65v11.7c0 .17.08.34.22.46s.33.19.53.19h9.5c.2 0 .39-.07.53-.19a.6.6 0 0 0 .22-.46V.65a.6.6 0 0 0-.22-.46.81.81 0 0 0-.53-.19Zm-1.9 8.04c0 .23-.06.47-.2.67-.15.2-.36.36-.6.45-.25.1-.53.13-.8.08a1.42 1.42 0 0 1-.7-.32c-.2-.17-.32-.38-.37-.61-.05-.23-.02-.47.1-.69.1-.21.28-.4.52-.51a1.5 1.5 0 0 1 1.65.16c.23.2.37.48.4.77ZM3.5 1.3h4v.87h-4V1.3Zm6 10.4h-5v-.67c0-.88 1.66-1.33 2.5-1.33.84 0 2.5.45 2.5 1.33v.67Z"/></svg>
